carriers/postSi.svg

<svg width="128" height="64" viewBox="0 0 128 64" fill="none" xmlns="http://www.w3.org/2000/svg">
<rect width="128" height="64" rx="6" fill="#FFD541"/>
<path d="M110.942 30.4308H108.738V37.6349H110.959L110.942 30.4308ZM9.60413 33.2229C9.60326 32.8674 9.63375 32.5126 9.69526 32.1624C8.96619 30.8464 8.49912 29.4016 8.3199 27.9079C8.30492 27.8091 8.25474 27.7191 8.17861 27.6544C8.10248 27.5897 8.00554 27.5546 7.90563 27.5558H6.41427C6.3044 27.5558 6.19903 27.5994 6.12134 27.6771C6.04365 27.7548 6 27.8602 6 27.97V27.9949C6.41427 31.7233 8.20804 34.9297 10.7185 36.7981C9.98988 35.7516 9.60083 34.5063 9.60413 33.2312M26.1748 28.0032V27.97C26.1748 27.8602 26.1312 27.7548 26.0535 27.6771C25.9758 27.5994 25.8704 27.5558 25.7605 27.5558H21.3279C21.218 27.5558 21.1126 27.5994 21.035 27.6771C20.9573 27.7548 20.9136 27.8602 20.9136 27.97V29.3537C20.9136 29.4636 20.9573 29.5689 21.035 29.6466C21.1126 29.7243 21.218 29.768 21.3279 29.768H23.4696C22.3553 33.8112 19.3601 36.7028 15.8347 36.7028C15.0306 36.7019 14.2519 36.4212 13.6321 35.9089C13.0124 35.3966 12.5902 34.6846 12.438 33.895C12.2858 33.1055 12.4131 32.2876 12.798 31.5816C13.183 30.8756 13.8015 30.3256 14.5477 30.0259C15.2938 29.7261 16.121 29.6953 16.8873 29.9388C17.6537 30.1823 18.3114 30.6848 18.7477 31.3602C19.1841 32.0357 19.3718 32.8418 19.2787 33.6405C19.1856 34.4392 18.8174 35.1806 18.2375 35.7375C18.9798 35.4125 19.6619 34.9643 20.2549 34.4119C20.7703 33.9321 21.2264 33.3925 21.6137 32.8045C21.533 31.6772 21.1246 30.598 20.4389 29.6997C19.7531 28.8013 18.8197 28.1229 17.7536 27.7478C16.6874 27.3727 15.5349 27.3173 14.4377 27.5884C13.3405 27.8595 12.3464 28.4452 11.5776 29.2737C10.8088 30.1021 10.2988 31.1372 10.1103 32.2515C9.9218 33.3659 10.063 34.5111 10.5166 35.5463C10.9701 36.5815 11.7163 37.4616 12.6633 38.0785C13.6103 38.6954 14.7169 39.0221 15.8471 39.0185C21.1208 39.002 25.4706 34.2089 26.1624 27.9907M36.1877 30.845C36.1877 31.9056 35.5828 32.4358 34.3732 32.4358H33.4783V29.2915H34.3732C35.5828 29.2915 36.1877 29.8094 36.1877 30.845ZM38.578 30.7622C38.578 28.6218 37.3076 27.5502 34.7667 27.5475H31.2082V37.6349H33.4783V34.1592H34.5596C35.6166 34.2131 36.6568 33.8786 37.4843 33.2188C37.8411 32.9192 38.125 32.5423 38.3144 32.1166C38.5039 31.691 38.5941 31.2278 38.578 30.7622ZM44.0712 33.9976C44.0712 35.4172 43.5381 36.1283 42.4721 36.1311C41.3536 36.1311 40.815 35.4393 40.815 34.0598C40.7754 33.5166 40.9215 32.9762 41.2293 32.527C41.3786 32.3445 41.5691 32.2001 41.7852 32.1057C42.0013 32.0114 42.2367 31.9697 42.4721 31.9843C43.5437 31.9843 44.0808 32.6568 44.0836 34.0018M45.2932 36.7939C45.6542 36.4195 45.934 35.9745 46.1151 35.4869C46.2961 34.9994 46.3746 34.4796 46.3455 33.9603C46.3676 33.4695 46.2885 32.9794 46.1132 32.5205C45.9379 32.0615 45.6701 31.6435 45.3264 31.2925C44.95 30.9397 44.5058 30.667 44.0209 30.4911C43.5359 30.3152 43.0203 30.2397 42.5052 30.2692C41.4439 30.2105 40.4021 30.5722 39.6054 31.2759C39.2405 31.6406 38.9567 32.0781 38.7725 32.56C38.5884 33.0418 38.5079 33.5571 38.5365 34.0722C38.5103 34.5751 38.5883 35.078 38.7659 35.5492C38.9434 36.0205 39.2165 36.4499 39.5681 36.8105C39.9483 37.1593 40.3946 37.4285 40.8806 37.6021C41.3665 37.7757 41.8823 37.8502 42.3975 37.8213C42.9261 37.8536 43.4558 37.7781 43.9543 37.5993C44.4528 37.4206 44.9097 37.1423 45.2974 36.7815M50.1857 29.3247L51.8428 27.0379H50.4012L49.3034 28.3636L48.2138 27.0379H46.7722L48.4292 29.3247H50.1857ZM52.1494 35.4641C52.1559 35.1953 52.1095 34.9279 52.0127 34.677C51.9161 34.4584 51.775 34.2622 51.5984 34.1012C51.4127 33.9334 51.2033 33.7938 50.977 33.6869C50.7174 33.555 50.4488 33.4415 50.1733 33.3472C50.0117 33.2934 49.846 33.2354 49.6803 33.1857C49.5244 33.1339 49.3721 33.0716 49.2246 32.9992C49.1003 32.9403 48.9879 32.8588 48.8932 32.759C48.8103 32.6656 48.7658 32.5442 48.7689 32.4193C48.7652 32.324 48.7945 32.2303 48.8518 32.1541C48.9069 32.0584 48.9871 31.9796 49.0838 31.9263C49.1923 31.8724 49.3082 31.8348 49.4276 31.8144C49.5638 31.7858 49.7027 31.7719 49.8419 31.773C50.1606 31.7768 50.4776 31.8186 50.7864 31.8973C51.1038 31.9757 51.408 32.0999 51.6895 32.266V30.5426C51.3713 30.4512 51.0475 30.3806 50.7201 30.3314C50.3994 30.2817 50.0753 30.2567 49.7508 30.2568C49.3537 30.2559 48.9577 30.299 48.5701 30.3852C48.2138 30.4664 47.8736 30.6064 47.5634 30.7995C47.28 30.9793 47.0429 31.2234 46.8716 31.512C46.6856 31.825 46.5909 32.1837 46.5982 32.5477C46.5931 32.8079 46.6323 33.067 46.7142 33.3141C46.7888 33.5238 46.9043 33.7167 47.0539 33.8816C47.2136 34.0472 47.3981 34.187 47.6007 34.2959C47.8437 34.432 48.0972 34.5483 48.3588 34.6439C48.537 34.7143 48.7192 34.7764 48.9139 34.8344C49.0963 34.8855 49.2748 34.9492 49.4483 35.025C49.6001 35.0807 49.7405 35.1635 49.8626 35.2694C49.9135 35.3135 49.9541 35.3683 49.9813 35.4299C50.0085 35.4915 50.0218 35.5584 50.02 35.6257C50.0199 35.7331 49.9869 35.838 49.9254 35.9261C49.864 36.0142 49.777 36.0814 49.6762 36.1187C49.3807 36.239 49.0628 36.2941 48.7441 36.2802C48.3956 36.2764 48.0495 36.222 47.7167 36.1187C47.3249 36.0145 46.9487 35.8584 46.5982 35.6547V37.4568C47.3045 37.706 48.049 37.8293 48.7979 37.8213C49.2158 37.8224 49.6325 37.778 50.0407 37.6887C50.4156 37.6134 50.7745 37.4732 51.1013 37.2745C51.4034 37.0924 51.6566 36.8392 51.8387 36.5371C52.0321 36.2057 52.1296 35.827 52.1204 35.4434M55.6334 37.8213C56.1413 37.8506 56.649 37.7613 57.1164 37.5603V35.9032C56.8963 36.0323 56.6466 36.1022 56.3915 36.1062C55.7949 36.1062 55.5008 35.7334 55.5049 34.9836V32.0837H57.1206V30.4266H55.5049V28.2434L53.2886 28.8773V30.4308H52.1204V32.0878H53.2886V35.402C53.2886 37.0287 54.0716 37.842 55.6375 37.842M61.7977 34.7392C61.8108 35.1406 61.67 35.5318 61.4041 35.8328C61.2762 35.9752 61.1187 36.0879 60.9427 36.1631C60.7666 36.2382 60.5763 36.2739 60.385 36.2678C60.125 36.2803 59.87 36.1929 59.6725 36.0234C59.5858 35.9453 59.5172 35.8492 59.4714 35.7419C59.4256 35.6346 59.4038 35.5186 59.4073 35.402C59.4073 34.8427 59.7677 34.5196 60.4886 34.4243L61.7977 34.2545V34.7392ZM61.7977 37.668H63.898V33.3306C63.898 31.2786 62.8706 30.254 60.8158 30.2568C60.323 30.2618 59.8324 30.3229 59.3535 30.4391C58.9162 30.5271 58.4907 30.6661 58.0858 30.8533V32.5104C58.8062 32.0144 59.6595 31.7473 60.5341 31.744C61.3875 31.744 61.8142 32.1376 61.8142 32.9247L59.8547 33.2105C58.1977 33.4259 57.3691 34.2324 57.3691 35.6298C57.3554 35.9213 57.4017 36.2125 57.505 36.4854C57.6083 36.7583 57.7665 37.0071 57.9698 37.2165C58.1923 37.4211 58.4536 37.579 58.7383 37.6808C59.0229 37.7825 59.3251 37.8261 59.6269 37.8089C60.0616 37.8262 60.4925 37.7222 60.8715 37.5086C61.2505 37.2949 61.5625 36.9801 61.7728 36.5992H61.8018L61.7977 37.668ZM74.3541 36.2181C74.5826 35.7817 74.6939 35.2936 74.6772 34.8013C74.6832 34.4355 74.6214 34.0717 74.4949 33.7283C74.3728 33.4208 74.1928 33.1396 73.9647 32.8998C73.719 32.6479 73.4403 32.4305 73.1361 32.2536C72.7848 32.051 72.4209 31.8711 72.0466 31.715C71.7525 31.5949 71.4874 31.4747 71.2512 31.3587C71.0434 31.2589 70.8439 31.1425 70.6547 31.0108C70.5081 30.9063 70.3806 30.7773 70.2777 30.6296C70.1962 30.4984 70.1531 30.347 70.1531 30.1926C70.1531 30.0381 70.1962 29.8867 70.2777 29.7555C70.3655 29.625 70.4816 29.5159 70.6174 29.4365C70.7838 29.3403 70.964 29.2704 71.1518 29.2294C71.3819 29.1798 71.6166 29.1548 71.8519 29.1548C72.0513 29.1583 72.2505 29.1722 72.4485 29.1963C72.6607 29.2267 72.8709 29.2696 73.0781 29.3247C73.2896 29.3825 73.496 29.4573 73.6954 29.5484C73.8885 29.6326 74.073 29.7352 74.2464 29.8549V27.7836C73.8833 27.647 73.5071 27.5484 73.1237 27.4895C72.6614 27.4226 72.1947 27.3907 71.7276 27.3942C71.2159 27.3938 70.7057 27.4522 70.2073 27.5682C69.7649 27.6743 69.3444 27.8565 68.9645 28.1067C68.5905 28.3347 68.2777 28.6504 68.0531 29.0264C67.8335 29.4434 67.725 29.91 67.7382 30.3811C67.7226 31.0034 67.9281 31.6111 68.3182 32.0961C68.7988 32.6337 69.4031 33.0461 70.0788 33.2975C70.3895 33.4259 70.6795 33.5502 70.9447 33.6703C71.1852 33.7785 71.4166 33.906 71.6365 34.0515C71.8129 34.1631 71.9697 34.3031 72.1005 34.4657C72.2125 34.6195 72.2707 34.8058 72.2662 34.996C72.2708 35.1416 72.2334 35.2854 72.1585 35.4103C72.0822 35.544 71.9722 35.6554 71.8395 35.7334C71.6753 35.8359 71.4944 35.9088 71.3051 35.9488C71.0608 36.0059 70.8103 36.0323 70.5594 36.0275C70.0648 36.0278 69.5739 35.9408 69.1095 35.7707C68.6216 35.5971 68.1696 35.336 67.7755 35.0001V37.2496C68.1849 37.451 68.6219 37.5906 69.0722 37.6639C69.5927 37.7602 70.1212 37.8074 70.6505 37.8047C71.1668 37.8077 71.682 37.7563 72.1875 37.6515C72.6413 37.5598 73.0749 37.3872 73.4676 37.1419C73.83 36.9095 74.1289 36.5906 74.3375 36.2139M75.4519 37.6307H77.6682V26.9551H75.4478L75.4519 37.6307ZM83.9237 33.9976C83.9237 35.4172 83.3906 36.1283 82.3246 36.1311C81.2061 36.1311 80.6537 35.4407 80.6675 34.0598C80.634 33.5142 80.7874 32.9736 81.1025 32.527C81.249 32.3469 81.4362 32.2041 81.6487 32.1105C81.8611 32.0169 82.0928 31.975 82.3246 31.9884C83.3962 31.9884 83.9333 32.6609 83.9361 34.0059M86.2021 33.9645C86.2249 33.4732 86.1458 32.9826 85.9697 32.5235C85.7936 32.0643 85.5243 31.6466 85.1789 31.2966C84.8023 30.9439 84.3582 30.671 83.8734 30.4944C83.3885 30.3179 82.873 30.2413 82.3577 30.2692C81.2964 30.211 80.2548 30.5726 79.4579 31.2759C79.093 31.6406 78.8092 32.0781 78.6251 32.56C78.4409 33.0418 78.3605 33.5571 78.3891 34.0722C78.3628 34.5751 78.4408 35.078 78.6184 35.5492C78.7959 36.0205 79.069 36.4499 79.4206 36.8105C80.229 37.4655 81.2398 37.8195 82.2802 37.8119C83.3207 37.8044 84.3262 37.4358 85.125 36.7691C85.4834 36.393 85.7613 35.9477 85.9415 35.4604C86.1217 34.9732 86.2005 34.4543 86.1731 33.9355M90.9248 37.6349L93.6051 30.4308H91.2811L90.001 34.9132C89.8801 35.3196 89.7928 35.7352 89.74 36.156H89.682C89.6408 35.7209 89.5576 35.2908 89.4334 34.8717L88.1906 30.4349H85.8127L88.3646 37.639L90.9248 37.6349ZM95.374 33.3017C95.4157 32.8928 95.582 32.5067 95.8504 32.1956C95.9622 32.0581 96.103 31.9471 96.2627 31.8705C96.4224 31.7939 96.5971 31.7535 96.7742 31.7523C97.6028 31.7523 98.017 32.2701 98.017 33.3017H95.374ZM95.374 34.6646H100.072V33.7283C100.12 32.8028 99.8114 31.8941 99.2101 31.1889C98.8929 30.8688 98.5103 30.6209 98.0885 30.4621C97.6666 30.3034 97.2155 30.2376 96.7659 30.2692C96.2905 30.2586 95.8178 30.3457 95.3774 30.5253C94.937 30.7049 94.5382 30.9731 94.2058 31.3132C93.8501 31.6933 93.5747 32.1413 93.396 32.6303C93.2174 33.1193 93.1391 33.6393 93.166 34.1592C93.1176 34.653 93.1794 35.1514 93.3468 35.6185C93.5142 36.0855 93.7831 36.5097 94.1341 36.8603C94.4852 37.211 94.9096 37.4794 95.3769 37.6463C95.8442 37.8132 96.3426 37.8744 96.8364 37.8254C97.7329 37.8628 98.6249 37.6793 99.4338 37.291V35.6795C98.8095 36.0571 98.092 36.2522 97.3625 36.2429C96.1197 36.2429 95.4569 35.7168 95.3864 34.6729M105.466 37.6432H107.682V33.2229C107.682 31.2455 106.885 30.2568 105.292 30.2568C104.823 30.2407 104.358 30.3549 103.95 30.5867C103.542 30.8185 103.206 31.1589 102.98 31.57H102.939V30.4308H100.714V37.6349H102.939V33.5254C102.92 33.118 103.053 32.7183 103.311 32.4027C103.425 32.2608 103.569 32.1467 103.734 32.0691C103.898 31.9916 104.078 31.9527 104.26 31.9553C105.055 31.9553 105.457 32.5145 105.457 33.6124L105.466 37.6432ZM110.772 28.9767C110.888 28.8725 110.979 28.7444 111.04 28.6013C111.101 28.4582 111.13 28.3036 111.124 28.1482C111.132 27.9925 111.104 27.8372 111.043 27.6938C110.982 27.5504 110.889 27.4225 110.772 27.3196C110.507 27.1161 110.183 27.0057 109.849 27.0057C109.514 27.0057 109.19 27.1161 108.925 27.3196C108.807 27.4223 108.714 27.5501 108.652 27.6934C108.591 27.8368 108.562 27.9922 108.568 28.1482C108.564 28.3038 108.594 28.4585 108.656 28.6015C108.717 28.7446 108.809 28.8726 108.925 28.9767C109.176 29.2037 109.506 29.324 109.844 29.3123C110.183 29.3245 110.514 29.2092 110.772 28.9891M112.148 37.6887C112.148 38.7935 111.798 39.3458 111.1 39.3458C110.806 39.3301 110.521 39.2403 110.271 39.0848V40.8289C110.611 40.9609 110.971 41.0324 111.336 41.0402C111.759 41.0658 112.183 40.9927 112.573 40.8266C112.964 40.6606 113.31 40.4061 113.585 40.0832C114.137 39.3508 114.413 38.4471 114.364 37.5313V30.4308H112.144L112.148 37.6887ZM114.194 28.9891C114.31 28.885 114.401 28.7568 114.462 28.6137C114.523 28.4706 114.551 28.316 114.546 28.1606C114.553 28.0049 114.525 27.8497 114.465 27.7062C114.404 27.5628 114.311 27.435 114.194 27.3321C113.93 27.1305 113.607 27.0213 113.274 27.0213C112.942 27.0213 112.619 27.1305 112.355 27.3321C112.237 27.4346 112.144 27.5623 112.082 27.7057C112.021 27.8491 111.992 28.0046 111.999 28.1606C111.995 28.3161 112.025 28.4705 112.087 28.6135C112.148 28.7564 112.24 28.8845 112.355 28.9891C112.616 29.201 112.942 29.3167 113.279 29.3167C113.615 29.3167 113.941 29.201 114.202 28.9891M119.923 33.3058H117.276C117.318 32.8991 117.483 32.5148 117.749 32.2038C117.861 32.0648 118.003 31.9525 118.164 31.8751C118.325 31.7978 118.502 31.7572 118.681 31.7564C119.509 31.7564 119.923 32.2743 119.923 33.3058ZM121.995 34.6687V33.7283C122.044 32.8026 121.736 31.8932 121.133 31.1889C120.815 30.8674 120.431 30.6187 120.008 30.46C119.584 30.3012 119.132 30.2361 118.681 30.2692C118.205 30.2583 117.732 30.3454 117.292 30.525C116.852 30.7046 116.453 30.9729 116.121 31.3132C115.763 31.6924 115.487 32.1402 115.307 32.6293C115.128 33.1185 115.049 33.6389 115.077 34.1592C115.029 34.6532 115.091 35.1517 115.259 35.6187C115.427 36.0858 115.696 36.5098 116.048 36.8604C116.399 37.2109 116.824 37.4793 117.291 37.6462C117.759 37.813 118.257 37.8743 118.751 37.8254C119.646 37.8623 120.537 37.6788 121.344 37.291V35.6795C120.72 36.0575 120.003 36.2527 119.273 36.2429C118.03 36.2429 117.367 35.7168 117.297 34.6729L121.995 34.6687Z" fill="black"/>
</svg>

<svg xmlns="http://www.w3.org/2000/svg" width="128" height="64" fill="none"><rect width="128" height="64" fill="#FFD541" rx="6"/><path fill="#000" d="M110.942 30.43h-2.204v7.205h2.221l-.017-7.204ZM9.604 33.224c0-.356.03-.71.091-1.06a11.64 11.64 0 0 1-1.375-4.255.414.414 0 0 0-.414-.352H6.414A.414.414 0 0 0 6 27.97v.025c.414 3.728 2.208 6.935 4.719 8.803a6.214 6.214 0 0 1-1.115-3.567m16.57-5.228v-.033a.414.414 0 0 0-.413-.414h-4.433a.414.414 0 0 0-.414.414v1.384a.414.414 0 0 0 .414.414h2.142c-1.115 4.043-4.11 6.935-7.635 6.935a3.463 3.463 0 1 1 2.402-.966 7.191 7.191 0 0 0 2.018-1.325c.515-.48.971-1.02 1.359-1.608a5.8 5.8 0 1 0-5.767 6.215c5.274-.017 9.624-4.81 10.315-11.028m10.026 2.854c0 1.06-.605 1.59-1.815 1.59h-.895v-3.144h.895c1.21 0 1.815.518 1.815 1.554Zm2.39-.083c0-2.14-1.27-3.212-3.811-3.215h-3.559v10.088h2.27v-3.476h1.082a4.337 4.337 0 0 0 2.924-.94 3.067 3.067 0 0 0 1.094-2.457Zm5.493 3.236c0 1.42-.533 2.13-1.599 2.133-1.118 0-1.657-.692-1.657-2.071a2.403 2.403 0 0 1 .414-1.533 1.488 1.488 0 0 1 1.243-.543c1.072 0 1.609.673 1.612 2.018m1.21 2.792a3.778 3.778 0 0 0 1.052-2.834 3.583 3.583 0 0 0-1.02-2.668 3.808 3.808 0 0 0-2.82-1.023 4.043 4.043 0 0 0-2.9 1.007 3.666 3.666 0 0 0-1.07 2.796 3.65 3.65 0 0 0 1.032 2.738 3.865 3.865 0 0 0 2.83 1.011 3.906 3.906 0 0 0 2.9-1.04m4.888-7.456 1.657-2.287H50.4l-1.098 1.326-1.09-1.326h-1.44l1.656 2.287h1.757Zm1.963 6.14a2.049 2.049 0 0 0-.136-.788 1.72 1.72 0 0 0-.415-.576 2.554 2.554 0 0 0-.621-.414 6.224 6.224 0 0 0-.804-.34c-.161-.054-.327-.112-.493-.161a3.637 3.637 0 0 1-.455-.187 1.116 1.116 0 0 1-.332-.24.493.493 0 0 1-.124-.34.415.415 0 0 1 .083-.265.604.604 0 0 1 .232-.228c.108-.054.224-.091.344-.112.136-.028.275-.042.414-.041.319.004.636.046.944.124.318.079.622.203.904.369v-1.723a7.605 7.605 0 0 0-.97-.212 6.317 6.317 0 0 0-.97-.074c-.396-.001-.792.042-1.18.128a3.287 3.287 0 0 0-1.007.414c-.283.18-.52.424-.691.713a1.95 1.95 0 0 0-.274 1.036c-.005.26.034.519.116.766.075.21.19.403.34.568.16.165.344.305.547.414.243.136.496.252.758.348.178.07.36.132.555.19.182.051.36.115.534.191.152.056.292.139.415.244a.456.456 0 0 1 .157.357.526.526 0 0 1-.344.493c-.295.12-.613.175-.932.161a3.598 3.598 0 0 1-1.027-.161 4.557 4.557 0 0 1-1.119-.464v1.802c.706.249 1.451.372 2.2.364.418.001.834-.043 1.243-.132a3.288 3.288 0 0 0 1.06-.414c.302-.183.556-.436.738-.738.193-.331.29-.71.281-1.094m3.513 2.378c.508.03 1.016-.06 1.483-.26v-1.658c-.22.13-.47.2-.724.203-.597 0-.891-.373-.887-1.122v-2.9h1.616v-1.657h-1.616v-2.184l-2.216.634v1.554H52.12v1.657h1.169v3.314c0 1.627.783 2.44 2.349 2.44m6.16-3.103c.013.402-.128.793-.394 1.094a1.314 1.314 0 0 1-1.019.435 1.019 1.019 0 0 1-.712-.245.803.803 0 0 1-.266-.621c0-.56.36-.882 1.082-.978l1.309-.17v.485Zm0 2.929h2.1v-4.337c0-2.052-1.027-3.077-3.082-3.074a6.48 6.48 0 0 0-1.463.182 5.7 5.7 0 0 0-1.267.414v1.657a4.346 4.346 0 0 1 2.448-.766c.854 0 1.28.394 1.28 1.18l-1.96.287c-1.656.215-2.485 1.021-2.485 2.419a2.134 2.134 0 0 0 .6 1.587 2.259 2.259 0 0 0 1.658.592 2.345 2.345 0 0 0 2.146-1.21h.029l-.004 1.069Zm12.556-1.45c.229-.436.34-.924.323-1.417a2.964 2.964 0 0 0-.182-1.073 2.588 2.588 0 0 0-.53-.828 3.887 3.887 0 0 0-.829-.646 9.5 9.5 0 0 0-1.09-.539c-.294-.12-.559-.24-.795-.356a4.311 4.311 0 0 1-.596-.348 1.57 1.57 0 0 1-.377-.381.828.828 0 0 1 0-.874c.087-.131.204-.24.34-.32a1.86 1.86 0 0 1 .534-.207c.23-.05.465-.074.7-.074.2.003.398.017.596.041.213.03.423.074.63.129.212.058.418.132.617.223.194.085.378.187.551.307v-2.071a5.606 5.606 0 0 0-1.122-.294 9.263 9.263 0 0 0-1.396-.096c-.512 0-1.022.058-1.52.174a3.923 3.923 0 0 0-1.243.539 2.697 2.697 0 0 0-.912.92c-.22.416-.328.883-.315 1.354-.015.622.19 1.23.58 1.715.48.538 1.085.95 1.76 1.202.311.128.602.252.867.372.24.108.472.236.692.381.176.112.333.252.463.415.113.154.17.34.166.53a.759.759 0 0 1-.108.414.882.882 0 0 1-.319.323 1.656 1.656 0 0 1-.534.216 3.022 3.022 0 0 1-.746.079c-.494 0-.985-.087-1.45-.257a4.255 4.255 0 0 1-1.334-.77v2.249c.41.201.847.34 1.297.414a8.44 8.44 0 0 0 1.578.14 7.36 7.36 0 0 0 1.537-.153 3.859 3.859 0 0 0 1.28-.51c.363-.231.662-.55.87-.927m1.115 1.417h2.216V26.955h-2.22l.004 10.676Zm8.472-3.633c0 1.42-.533 2.13-1.6 2.133-1.118 0-1.67-.69-1.656-2.071a2.403 2.403 0 0 1 .434-1.533 1.466 1.466 0 0 1 1.223-.539c1.071 0 1.608.673 1.611 2.018m2.266-.041a3.562 3.562 0 0 0-1.023-2.668 3.825 3.825 0 0 0-2.821-1.028 4.047 4.047 0 0 0-2.9 1.007 3.664 3.664 0 0 0-1.069 2.796 3.648 3.648 0 0 0 1.032 2.738 4.49 4.49 0 0 0 5.704-.04 3.815 3.815 0 0 0 1.048-2.835m4.752 3.7 2.68-7.204h-2.324l-1.28 4.482c-.12.407-.208.822-.261 1.243h-.058a6.764 6.764 0 0 0-.249-1.284l-1.242-4.437h-2.378l2.552 7.204 2.56-.004Zm4.449-4.333c.042-.41.208-.795.476-1.106a1.2 1.2 0 0 1 .924-.444c.829 0 1.243.518 1.243 1.55h-2.643Zm0 1.363h4.698v-.937a3.625 3.625 0 0 0-.862-2.54 3.133 3.133 0 0 0-2.444-.919 3.472 3.472 0 0 0-2.56 1.044 3.873 3.873 0 0 0-1.04 2.846 3.355 3.355 0 0 0 3.67 3.666 5.475 5.475 0 0 0 2.598-.534V35.68a3.906 3.906 0 0 1-2.072.563c-1.242 0-1.905-.526-1.976-1.57m10.08 2.97h2.216v-4.42c0-1.977-.797-2.966-2.39-2.966a2.541 2.541 0 0 0-2.312 1.313h-.041v-1.14h-2.225v7.205h2.225v-4.11a1.653 1.653 0 0 1 .372-1.122 1.194 1.194 0 0 1 .949-.448c.795 0 1.197.56 1.197 1.657l.009 4.031Zm5.306-8.666a1.065 1.065 0 0 0 .352-.829 1.026 1.026 0 0 0-.352-.828 1.515 1.515 0 0 0-1.847 0 1.045 1.045 0 0 0-.357.828 1.07 1.07 0 0 0 .357.829c.251.227.581.347.919.335.339.012.67-.103.928-.323m1.376 8.7c0 1.105-.35 1.657-1.048 1.657a1.745 1.745 0 0 1-.829-.261v1.744c.34.132.7.203 1.065.211a2.737 2.737 0 0 0 2.249-.957 3.894 3.894 0 0 0 .779-2.552v-7.1h-2.22l.004 7.258Zm2.046-8.7a1.064 1.064 0 0 0 .352-.828 1.042 1.042 0 0 0-.352-.828 1.515 1.515 0 0 0-1.839 0 1.042 1.042 0 0 0-.356.828 1.084 1.084 0 0 0 .356.829 1.465 1.465 0 0 0 1.847 0m5.721 4.316h-2.647c.042-.407.207-.791.473-1.102a1.202 1.202 0 0 1 .932-.448c.828 0 1.242.518 1.242 1.55Zm2.072 1.363v-.94a3.61 3.61 0 0 0-.862-2.54 3.128 3.128 0 0 0-2.452-.92 3.466 3.466 0 0 0-2.56 1.044 3.855 3.855 0 0 0-1.044 2.846 3.353 3.353 0 0 0 2.214 3.487 3.36 3.36 0 0 0 1.46.18 5.468 5.468 0 0 0 2.593-.535V35.68a3.895 3.895 0 0 1-2.071.563c-1.243 0-1.906-.526-1.976-1.57l4.698-.004Z"/></svg>
